svg/color/jpmon.svg

<svg width="40" height="40" viewBox="0 0 40 40" fill="none" xmlns="http://www.w3.org/2000/svg">
<g clip-path="url(#clip0_820_3871)">
<path d="M20 0C31.0457 0 40 8.9543 40 20C40 31.0457 31.0457 40 20 40C8.95431 40 7.90517e-06 31.0457 0 20C6.58765e-07 8.95431 8.95431 1.97595e-06 20 0Z" fill="#D9D9D9"/>
<path d="M26 6C30.4183 6 34 9.58172 34 14V26C34 30.4183 30.4183 34 26 34H14C9.58172 34 6 30.4183 6 26V14C6 9.58172 9.58172 6 14 6H26Z" fill="black"/>
<path d="M24.4512 22.0876C24.5868 22.1421 24.7877 22.1773 25.054 22.1935V22.3074H22.0484V22.1935C22.3142 22.1773 22.5157 22.1421 22.6513 22.0876C22.7868 22.0336 22.8808 21.9466 22.9322 21.8267C22.9835 21.7073 23.0094 21.5306 23.0094 21.2973V17.664H22.9851L20.9243 22.4133H20.9L18.6922 17.6807H18.6679V21.2973C18.6679 21.5306 18.6949 21.7073 18.7495 21.8267C18.8035 21.9461 18.8975 22.033 19.0304 22.0876C19.1632 22.1421 19.3631 22.1773 19.6289 22.1935V22.3074H17.3358V22.1935C17.6016 22.1773 17.8014 22.1421 17.9343 22.0876C18.0672 22.0336 18.1612 21.9466 18.2152 21.8267C18.2692 21.7073 18.2968 21.5306 18.2968 21.2973V17.6559C18.2968 17.4225 18.2698 17.2459 18.2152 17.1265C18.1607 17.0071 18.0672 16.9201 17.9343 16.8656C17.8009 16.8115 17.6016 16.7759 17.3358 16.7597V16.6457H19.3928L21.2716 20.7474L23.0937 16.6457H25.054V16.7597C24.7877 16.7759 24.5868 16.8115 24.4512 16.8656C24.3156 16.9201 24.2205 17.0082 24.1659 17.1303C24.1114 17.2523 24.0844 17.4274 24.0844 17.6559V21.2973C24.0844 21.5306 24.1114 21.7073 24.1659 21.8267C24.2205 21.9466 24.3156 22.033 24.4512 22.0876ZM28.279 21.9558C27.0776 21.9639 26.1247 20.998 26.1247 19.4309C26.1247 17.7747 27.0122 16.8088 28.0272 16.8088C29.0422 16.8088 29.4776 17.7234 29.6997 18.6217L29.8623 18.619V16.966C29.4809 16.7548 28.8553 16.5166 27.9462 16.5166C26.1927 16.5166 24.8693 17.7996 24.8693 19.5125C24.8693 21.1444 25.9734 22.4349 27.8733 22.4268C28.9207 22.4187 29.651 21.7937 30 21.3146L29.8866 21.193C29.651 21.461 29.18 21.9477 28.279 21.9558ZM14.8633 19.8393V21.2973C14.8633 21.5252 14.8957 21.7003 14.9611 21.8229C15.0265 21.945 15.135 22.0336 15.2868 22.0876C15.4386 22.1421 15.6698 22.1773 15.9794 22.1935V22.3074H12.8268V22.1935C13.0926 22.1773 13.2925 22.1421 13.4253 22.0876C13.5582 22.0336 13.6522 21.9466 13.7062 21.8267C13.7603 21.7073 13.7878 21.5306 13.7878 21.2973V17.6807C13.7878 16.9358 13.4513 16.7845 12.9403 16.7845C12.3795 16.7845 12.0365 16.9352 12.0365 17.6564V21.703C12.0365 22.6175 11.4423 23.4872 10.269 23.4872C10.1783 23.4872 10.0886 23.4818 10 23.4715V23.3738C10.2787 23.357 10.5045 23.2625 10.6763 23.088C10.8665 22.8952 10.9615 22.5792 10.9615 22.1389V17.6559C10.9615 17.4279 10.9345 17.2523 10.88 17.1303C10.8254 17.0082 10.7303 16.9201 10.5947 16.8656C10.4592 16.8115 10.2609 16.7759 10 16.7597V16.6457H15.5667C16.8329 16.6457 17.6167 17.2788 17.6167 18.2344C17.6167 19.3283 16.5422 19.8393 15.5818 19.8393H14.8633ZM14.8633 19.6205H15.2517C15.9124 19.6205 16.4682 19.2338 16.4682 18.2425C16.4682 17.0309 15.6682 16.8645 15.2717 16.8645H14.8633V19.6205Z" fill="white"/>
</g>
<defs>
<clipPath id="clip0_820_3871">
<rect width="40" height="40" fill="white"/>
</clipPath>
</defs>
</svg>

<svg xmlns="http://www.w3.org/2000/svg" width="40" height="40" fill="none" viewBox="0 0 40 40"><g clip-path="url(#jpmon_svg-a)"><path fill="#D9D9D9" d="M20 0c11.046 0 20 8.954 20 20s-8.954 20-20 20S0 31.046 0 20 8.954 0 20 0"/><path fill="#000" d="M26 6a8 8 0 0 1 8 8v12a8 8 0 0 1-8 8H14a8 8 0 0 1-8-8V14a8 8 0 0 1 8-8z"/><path fill="#fff" d="M24.451 22.088q.204.082.603.105v.114h-3.006v-.113q.4-.025.603-.106a.48.48 0 0 0 .281-.261q.078-.18.077-.53v-3.633h-.024l-2.06 4.75H20.9l-2.208-4.733h-.024v3.616q0 .35.082.53.08.18.28.26.2.082.599.107v.113h-2.293v-.113q.399-.025.598-.106a.5.5 0 0 0 .281-.261q.081-.18.082-.53v-3.641q0-.35-.082-.53a.5.5 0 0 0-.28-.26q-.2-.082-.6-.106v-.114h2.058l1.879 4.101 1.822-4.101h1.96v.114q-.399.024-.603.106a.5.5 0 0 0-.285.264q-.082.183-.082.526v3.641q0 .35.082.53t.285.26m3.828-.132c-1.201.008-2.154-.958-2.154-2.525 0-1.656.887-2.622 1.902-2.622s1.45.914 1.673 1.813l.162-.003v-1.653c-.381-.211-1.007-.45-1.916-.45-1.753 0-3.077 1.284-3.077 2.997 0 1.631 1.104 2.922 3.004 2.914 1.048-.008 1.778-.633 2.127-1.112l-.113-.122c-.236.268-.707.755-1.608.763m-13.416-2.117v1.458q0 .342.098.526.098.183.326.265t.692.105v.114h-3.152v-.113q.4-.025.598-.106a.5.5 0 0 0 .281-.261q.082-.18.082-.53V17.68c0-.745-.337-.896-.848-.896-.56 0-.903.15-.903.871v4.047c0 .915-.595 1.784-1.768 1.784q-.135 0-.269-.015v-.098q.419-.024.676-.286.285-.289.285-.95v-4.482q0-.343-.081-.526a.5.5 0 0 0-.285-.264q-.204-.082-.595-.106v-.114h5.567c1.266 0 2.05.633 2.05 1.588 0 1.094-1.075 1.605-2.035 1.605zm0-.218h.389c.66 0 1.216-.387 1.216-1.378 0-1.212-.8-1.378-1.196-1.378h-.409z"/></g><defs><clipPath id="jpmon_svg-a"><path fill="#fff" d="M0 0h40v40H0z"/></clipPath></defs></svg>
